X:1
T:Title
%%score [ ( 1 2 ) ( 3 4 ) ] { ( 5 6 ) | ( 7 8 ) }
L:1/8
Q:1/4=120
M:4/4
K:D
V:1 treble nm="Midi_74"
V:2 treble 
V:3 bass nm="Midi_74"
V:4 bass 
V:5 treble nm="Org."
V:6 treble 
V:7 bass 
V:8 bass 
V:1
 A8 | d4 (c2 d2) | e8 || (d6 c2) | (B2 d2) (c2 B2) | A4 G4 | F8 || F8 | B4 (^A2 B2) | c8 || %10
 (B6 =A2) | (G2 B2)"^William Henry Havergal\n(1793-1870)" (A2 G2) | F4 E4 | D8 |] %14
V:2
 (A6 G2) | (F2 A2) (G2 F2) | E8 || A8 | G4 G4 | F4 E4 | D8 || (F6 E2) | (D2 F2) (E2 D2) | C8 || %10
 F8 | (E2 G2) (F2 E2) | D4 C4 | D8 |] %14
V:3
 (D6 C2) | (D2 A,2) (A,2 D2) | C8 || D8 | D4 D4 | D4 C4 | D8 || (B,6 ^A,2) | (B,2 F,2) (F,2 B,2) | %9
 ^A,8 || B,8 | B,4 B,4 | A,4 (A,2 G,2) | F,8 |] %14
V:4
 (F,6 E,2) | (D,2 F,2) (E,2 D,2) | A,,8 || F,8 | G,4 G,4 | A,4 A,,4 | D,8 || (D,6 C,2) | %8
 (B,,2 D,2) (C,2 B,,2) | F,8 || D,8 | E,4 G,4 | A,4 A,,4 | D,8 |] %14
V:5
 A8 | d4 c2 d2 | e8 || d6 c2 | B2 d2 c2 B2 | A4 G4 | F8 || F8 | B4 ^A2 B2 | [^Ac]8 || B6 =A2 | %11
 G2 B2 A2 G2 | F4 E4 | D8 |] %14
V:6
 [DA]6 [CG]2 | [DF]2 A2 G2 F2 | [Ec]8 || A8 | [DG]8 | [DF]4 [CE]4 | D8 || [B,F]6 [^A,E]2 | %8
 [B,D]2 F2 E2 D2 | C8 || F8 | E2 G2 F2 E2 | D4 C4 | D8 |] %14
V:7
 x2 x2 x4 | x8 | x8 || x8 | x8 | x8 | A,8 || x2 x2 x4 | x8 | x8 || x8 | x8 | x4 A,2 G,2 | x8 |] %14
V:8
 F,6 E,2 | D,2 F,2 E,2 D,2 | A,,8 || F,8 | G,4 G,4 | A,4 A,,4 | D,8 || D,6 C,2 | %8
 B,,2 D,2 C,2 B,,2 | F,8 || D,8 | E,4 G,4 | A,4 A,,4 | [D,F,]8 |] %14

